packages/bezier-icons/icons/chat-suggestion.svg

<svg width="24" height="24" viewBox="0 0 24 24" fill="none" xmlns="http://www.w3.org/2000/svg">
<path fill-rule="evenodd" clip-rule="evenodd" d="M1.5 12C1.5 6.87529 6.36893 3 12 3C17.6311 3 22.5 6.87529 22.5 12C22.5 17.1247 17.6311 21 12 21C11.4131 21 10.8368 20.9588 10.2749 20.8793C8.7919 22.0248 7.17683 22.5834 6.12433 22.8496C5.46261 23.017 4.86463 22.7145 4.55356 22.2407C4.25404 21.7844 4.20883 21.1639 4.52033 20.6348C4.78995 20.1768 5.09523 19.592 5.33525 18.9584C3.03108 17.3352 1.5 14.8483 1.5 12ZM12 5C7.13766 5 3.5 8.28815 3.5 12C3.5 14.2833 4.84342 16.3746 7.03588 17.679L7.69118 18.0688L7.48867 18.804C7.31856 19.4215 7.08427 20.0074 6.83962 20.5258C7.63792 20.2159 8.53521 19.751 9.3422 19.0609L9.70311 18.7523L10.1704 18.837C10.7588 18.9436 11.3709 19 12 19C16.8623 19 20.5 15.7118 20.5 12C20.5 8.28815 16.8623 5 12 5ZM10.9965 14.5792L11.7487 16.3343C11.8434 16.5552 12.1566 16.5552 12.2513 16.3343L13.0035 14.5792C13.3069 13.8711 13.8711 13.3069 14.5792 13.0035L16.3343 12.2513C16.5552 12.1566 16.5552 11.8434 16.3343 11.7487L14.5792 10.9965C13.8711 10.6931 13.3069 10.1289 13.0035 9.42085L12.2513 7.66568C12.1566 7.44477 11.8434 7.44477 11.7487 7.66568L10.9965 9.42085C10.6931 10.1289 10.1289 10.6931 9.42085 10.9965L7.66568 11.7487C7.44477 11.8434 7.44477 12.1566 7.66568 12.2513L9.42085 13.0035C10.1289 13.3069 10.6931 13.8711 10.9965 14.5792Z" fill="#313234"/>
</svg>

<svg xmlns="http://www.w3.org/2000/svg" width="24" height="24" fill="none" viewBox="0 0 24 24"><path fill="#313234" fill-rule="evenodd" d="M1.5 12c0-5.125 4.869-9 10.5-9s10.5 3.875 10.5 9-4.869 9-10.5 9q-.881 0-1.725-.12c-1.483 1.145-3.098 1.703-4.15 1.97a1.44 1.44 0 0 1-1.571-.61 1.52 1.52 0 0 1-.034-1.605c.27-.458.575-1.043.815-1.677C3.031 17.335 1.5 14.848 1.5 12M12 5c-4.862 0-8.5 3.288-8.5 7 0 2.283 1.343 4.375 3.536 5.679l.655.39-.202.735a11 11 0 0 1-.65 1.722c.799-.31 1.696-.775 2.503-1.465l.361-.309.467.085q.884.162 1.83.163c4.862 0 8.5-3.288 8.5-7S16.862 5 12 5m-1.004 9.58.753 1.754c.094.221.408.221.502 0l.753-1.755a3 3 0 0 1 1.575-1.575l1.755-.753a.273.273 0 0 0 0-.502l-1.755-.753a3 3 0 0 1-1.575-1.575l-.753-1.755a.273.273 0 0 0-.502 0l-.753 1.755a3 3 0 0 1-1.575 1.576l-1.755.752a.273.273 0 0 0 0 .502l1.755.753a3 3 0 0 1 1.576 1.575" clip-rule="evenodd"/></svg>
